X:547
T: EI ALLALIABS SCHAZZAL
N: Z1227
O: Europa, Mitteleuropa, Deutschland, Boehmen
R: Liebes - Lied
M: 3/4
L: 1/8
K: Bb
df | ceegB2 | dfAc
cd | B2d2df | ceeg
B2 | dfAccd | B4
d2 | d2ceBd | dfAccd | B2
d2d2 | c2ceBd | dfAccd | B4

@@@ Tune index: 10305
